X: 3
T: Folding Down the Sheets
O:Old-time Appalachian
L:1/8
M:4/4
S:Henry Reed, from a transcription by Alan Jabbour
F:http://www.ibiblio.org/fiddlers/FOCH_FORG.htm
Z: Contributed 2016-03-09 22:07:57 by Jim Gaskins fiddleji@comcast.net
K:D
(a/g/ |\
f/)e/d/B/ e/d/c/A/ dF A/F/A/(d/ | B/)G/B/(B/ A/)F/A/F/ A,2 D (a/g/ |\
f/)d/f/d/ e/c/e/c/ d[FA] A/F/A/d/ | [D/B/]G/B/[G/B/] [D/A/]F/(A/F/) A,2 D2 |
[Ae]>(f g/f/)(g/f/) [A/e/]c/(e/f/4g/4) aa | c(e/c/ B)g (f/d/)(e/c/ d)d |\
e(e/f/ g/f/)(g/f/) [A/e/]c/(e/f/4/g/4) aa | [c2e2] Bg f/d/e/c/ d2 |]
[Ae]>g |\
fd[Ae]c dF A/F/A/(d/ | B/)G/B/(G/ D/F/)(A/F/) A,2 D2 e>(g |\
f)d (e/c/)(e/c/) dF (A/F/)(A/d/) | (B/G/)(B/G/) (D/F/)(A/F/) A,2 D2 |
e(e/4f/4 g/f/)(g/f/) (e/c/)(e/f/) [A2a2] | [c2e2] [Bf]g f/d/(e/B/4c/4 d2) |\
(e>f g/f/)[B/g/]f/ [A/e/]g/(e/f/) a2 | [c2e2] Bg (f/d/)(e/c/ d) |]
